icons/linear-ele-building-school.svg

<svg xmlns="http://www.w3.org/2000/svg" width="32px" height="32px" viewBox="0 0 32 32" version="1.1">
    <title>linear-ele-building-school</title>
    <g id="linear-ele-building-school" stroke-width="1" fill-rule="evenodd">
        <path d="M26,3 C26.5522847,3 27,3.44771525 27,4 L27,27 L29,27 C29.5522847,27 30,27.4477153 30,28 C30,28.5522847 29.5522847,29 29,29 L3,29 C2.44771525,29 2,28.5522847 2,28 C2,27.4477153 2.44771525,27 3,27 L5,27 L5,4 C5,3.44771525 5.44771525,3 6,3 L26,3 Z M25,5 L7,5 L7,27 L10,27 L10,25 C10,21.6862915 12.6862915,19 16,19 C19.3137085,19 22,21.6862915 22,25 L22,27 L25,27 L25,5 Z M16,21 C13.790861,21 12,22.790861 12,25 L12,27 L20,27 L20,25 C20,22.790861 18.209139,21 16,21 Z M21,13 C21.5522847,13 22,13.4477153 22,14 L22,15 C22,15.5522847 21.5522847,16 21,16 L19,16 C18.4477153,16 18,15.5522847 18,15 L18,14 C18,13.4477153 18.4477153,13 19,13 L21,13 Z M13,13 C13.5522847,13 14,13.4477153 14,14 L14,15 C14,15.5522847 13.5522847,16 13,16 L11,16 C10.4477153,16 10,15.5522847 10,15 L10,14 C10,13.4477153 10.4477153,13 11,13 L13,13 Z M13,7 C13.5522847,7 14,7.44771525 14,8 L14,9 C14,9.55228475 13.5522847,10 13,10 L11,10 C10.4477153,10 10,9.55228475 10,9 L10,8 C10,7.44771525 10.4477153,7 11,7 L13,7 Z M21,7 C21.5522847,7 22,7.44771525 22,8 L22,9 C22,9.55228475 21.5522847,10 21,10 L19,10 C18.4477153,10 18,9.55228475 18,9 L18,8 C18,7.44771525 18.4477153,7 19,7 L21,7 Z" id="&#24418;&#29366;" fill-rule="nonzero" />
    </g>
</svg>

<svg xmlns="http://www.w3.org/2000/svg" viewBox="0 0 32 32"><path fill="currentColor" d="M26 3a1 1 0 0 1 1 1v23h2a1 1 0 0 1 0 2H3a1 1 0 0 1 0-2h2V4a1 1 0 0 1 1-1zm-1 2H7v22h3v-2a6 6 0 1 1 12 0v2h3zm-9 16a4 4 0 0 0-4 4v2h8v-2a4 4 0 0 0-4-4m5-8a1 1 0 0 1 1 1v1a1 1 0 0 1-1 1h-2a1 1 0 0 1-1-1v-1a1 1 0 0 1 1-1zm-8 0a1 1 0 0 1 1 1v1a1 1 0 0 1-1 1h-2a1 1 0 0 1-1-1v-1a1 1 0 0 1 1-1zm0-6a1 1 0 0 1 1 1v1a1 1 0 0 1-1 1h-2a1 1 0 0 1-1-1V8a1 1 0 0 1 1-1zm8 0a1 1 0 0 1 1 1v1a1 1 0 0 1-1 1h-2a1 1 0 0 1-1-1V8a1 1 0 0 1 1-1z"/></svg>
